X:1
T:Title
%%score { 1 | ( 2 3 ) }
L:1/8
M:2/4
K:C
V:1 treble nm="Grand Piano"
V:2 bass 
V:3 bass 
V:1
 z2 z[Q:1/4=80] [EG] | [EG]>[EA] [EG][EG] | [FG]>[FA] [FG][FG] | GA Bc |[M:3/8] cBB |[M:1/8] G | %6
[M:2/4] G>A GG | G>A G[Ge] | [Gd][B,GB] [B,G][EGc] |[M:5/8] [DGB][C^FA] [B,G]3 | %10
[M:2/4] [EG][Ee] [Ec]2 | [EG][Ee] [Ec]2 | [EG]>[EA] [EB][Ec] | cB B2 | Gf d2 | Gf d2 | %16
 [FB]>[FB] [FA][FB] | [_EA]2 [=EG]2 | [EG][Ee] [Ec]2 | [EG][Ee] [Ec]G | A>B cd | [^Ge]3 [Ge] | %22
 e>d fd | d>c ec | c>B dB |[M:9/16] [Ec]4- [Ec]/ |] %26
V:2
 z2 z [C,C] | [C,C]>[C,C] [C,C][C,C] | [D,B,]>[D,B,] [D,B,][D,B,] | [E,CE][E,CE] [E,CE][E,CE] | %4
[M:3/8][K:treble] [G,DF][G,DF][G,DF] |[M:1/8] [G,B,F] |[M:2/4] [G,B,F]>[G,B,F] [G,B,F][G,B,F] | %7
 [G,CE]>[G,CE] [G,CE][C,C] | [D,B,]D, D,D, |[M:5/8] D,D, z F2 |[M:2/4] [C,C][C,C] [C,C]2 | %11
 [C,C][C,C] [C,C]2 | [C,C]>[C,C] [C,C][C,C] | [G,DF][G,DF] [G,DF]2 | [G,B,F][G,B,F] [G,B,F]2 | %15
 [G,B,F][G,B,F] [G,B,F]2 | [G,,G,]>[G,,G,] [G,,G,][G,,G,] | ^F,2 z2 | [C,C][C,C] [C,C]2 | %19
 [C,C][C,C] [C,C]G, | A,>B, CD | [E,B,]3 [E,B,] | [F,A,F]>[F,A,F] [F,A,F][F,A,F] | %23
 [G,CE]>[G,CE] [G,CE][G,CE] | [G,DF]>[G,DF] [G,B,F][G,DF] |[M:9/16][K:bass] [C,C]4- [C,C]/ |] %26
V:3
 x4 | x4 | x4 | x4 |[M:3/8][K:treble] x3 |[M:1/8] x |[M:2/4] x4 | x4 | x4 |[M:5/8] z2 G,3 | %10
[M:2/4] x4 | x4 | x4 | x4 | x4 | x4 | x4 | C,2- [C,G,]2 | x4 | x4 | x4 | x4 | x4 | x4 | x4 | %25
[M:9/16][K:bass] x9/2 |] %26

